src/dsmComponents/Icons/fall-detected-12px.svg

<?xml version="1.0" encoding="UTF-8"?>
<svg width="12px" height="10px" viewBox="0 0 12 10" version="1.1" xmlns="http://www.w3.org/2000/svg" xmlns:xlink="http://www.w3.org/1999/xlink">
    <!-- Generator: Sketch 59.1 (86144) - https://sketch.com -->
    <title>fall-detected-12px</title>
    <desc>Created with Sketch.</desc>
    <defs>
        <path d="M9.73315172,5.33765933 L11.5928032,5.52102617 C11.8405255,5.55158731 12.0209394,5.78297879 11.9980407,6.04493142 C11.9744481,6.31270522 11.7655843,6.52153967 11.5095353,6.53172672 L9.15582707,6.4778809 L8.20587822,5.58796962 L5.80012756,8.17256887 C5.45872885,8.53639196 4.95495758,8.66227475 4.4983715,8.49709906 L2.27858598,8.3952286 L1.00181032,9.58201953 C0.774211181,9.79376457 0.43558807,9.8068622 0.194110934,9.61258067 C0.185784136,9.6067595 0.178151238,9.60021068 0.17190614,9.59438951 C-0.0348760057,9.40738444 -0.0584685995,9.07994366 0.119863654,8.8631051 L1.59648246,7.06509137 C1.73109903,6.98505029 1.88722649,6.95958268 2.03780275,6.99378205 L3.66430392,6.91010274 C3.71495861,6.65760951 3.83222768,6.42694567 4.00153923,6.24430648 L5.47538244,4.66385896 L6.22826374,3.88891577 L5.41015586,3.26022947 C5.29358069,3.17000134 5.21239441,3.0353868 5.18533232,2.88330875 L4.79397282,0.660349652 C4.74401203,0.375839994 4.90916019,0.0978791509 5.17561772,0.0185657167 L5.17700552,0.0185657167 C5.43583015,-0.0563818403 5.70367548,0.102245028 5.77584106,0.374384701 L6.30736832,2.38196053 L7.34405465,2.97426452 C7.39193374,3.00191508 7.43564943,3.03684209 7.47520171,3.07759028 C7.47520171,3.07759028 8.80332596,4.26801944 8.83524536,4.35388169 L9.73315172,5.33765933 Z M10.4450929,3.19110308 C9.86638048,3.81178528 8.92684013,3.81178528 8.34743378,3.19110308 C7.76802744,2.5689656 7.76802744,1.56190328 8.34743378,0.940493433 C8.92684013,0.319811237 9.86638048,0.319811237 10.4450929,0.940493433 C11.0244993,1.56190328 11.0244993,2.5689656 10.4450929,3.19110308 L10.4450929,3.19110308 Z M4.1326863,5.22050829 C4.1326863,5.22050829 3.27918952,6.14170836 3.19314594,6.26249763 L2.04474175,4.79265234 L0.453629466,4.49504505 C0.181620737,4.44265452 -0.0112834119,4.18797836 0.000512884964,3.89837518 C0.00120678478,3.89109871 0.00120678478,3.88309461 0.0019006846,3.8750905 C0.0247993786,3.61095493 0.24754122,3.41594575 0.499426853,3.44068573 L2.70533437,3.67644309 L4.1326863,5.22050829 Z" id="path-1"></path>
    </defs>
    <g id="Final" stroke="none" stroke-width="1" fill="none" fill-rule="evenodd">
        <g id="All-Nucleo-Icons" transform="translate(-174.000000, -3358.000000)">
            <g id="Solo/Nucleo/12px/fall-detected" transform="translate(168.000000, 3351.000000)">
                <g id="fall-detected" transform="translate(6.000000, 7.000000)">
                    <mask id="mask-2" fill="white">
                        <use xlink:href="#path-1"></use>
                    </mask>
                    <use id="Mask" fill="#000000" xlink:href="#path-1"></use>
                    <g id="colour/neutral/chia" mask="url(#mask-2)" fill="#737373">
                        <g transform="translate(-18.000000, -18.750000)" id="Colour">
                            <rect x="0" y="0" width="48" height="48"></rect>
                        </g>
                    </g>
                </g>
            </g>
        </g>
    </g>
</svg>

<svg width="12" height="10" xmlns="http://www.w3.org/2000/svg" xmlns:xlink="http://www.w3.org/1999/xlink"><defs><path d="M9.733 5.338l1.86.183c.248.03.428.262.405.524a.522.522 0 01-.488.487l-2.354-.054-.95-.89L5.8 8.173a1.21 1.21 0 01-1.302.324l-2.22-.102-1.276 1.187a.612.612 0 01-.83.012.536.536 0 01-.052-.73l1.476-1.799a.6.6 0 01.442-.071l1.626-.084a1.38 1.38 0 01.338-.666l1.473-1.58.753-.775-.818-.629a.612.612 0 01-.225-.377L4.794.66a.564.564 0 01.382-.64h.001a.485.485 0 01.599.355l.531 2.008 1.037.592a.605.605 0 01.131.104s1.328 1.19 1.36 1.276l.898.984zm.712-2.147c-.579.62-1.518.62-2.098 0a1.674 1.674 0 010-2.25 1.414 1.414 0 012.098 0c.58.62.58 1.628 0 2.25zm-6.312 2.03s-.854.92-.94 1.041l-1.148-1.47-1.591-.297A.576.576 0 010 3.898v-.023a.464.464 0 01.5-.434l2.206.235 1.428 1.545z" id="fall-detected-12px_svg__a"/></defs><use fill="#737373" xlink:href="#fall-detected-12px_svg__a" fill-rule="evenodd"/></svg>
